X: 29692
T: Nounoune's
R: jig
M: 6/8
K: Adorian
|:edc AGE A2A ABc|edc ABc d2e edc|
edc AGE A2A ABc|edc ABc eAf Ag2:|
|:fgg efg a2a ged|edc fed gf/g/a fed|
abg efg a2a ged|edc ABc d2e edc:|

